X: 175
T: Golden Slumbers
%R: air, waltz
B: "The Everyday Song Book", 1927
F: http://www.library.pitt.edu/happybirthday/pdf/The_Everyday_Song_Book.pdf
Z: 2017 John Chambers <jc:trillian.mit.edu>
M: 3/4
L: 1/4
K: Bb
% - - - - - - - - - - - - - - - - - - - - - - - - - - - - -
|: (F D) E | F2 d | c2 B | G3 | (F D) E | F2 d | c2 B | c3 :|
w: Gold - en slum-bers kiss your eyes,   Smiles* a-wait you when you rise;
w: Care* you know not, there-fore sleep, While* I o'er you watch do keep;
%
c d e | (f e) d | (e d) c | (B A) F | B d2 | G2 c | F A2 | B3 |]
w: Sleep, pret-ty wan - ton, do* not cry,* And I will sing a lul-la-by.
% - - - - - - - - - - - - - - - - - - - - - - - - - - - - -
